packages/icons/svg/Fill/recording.svg

<svg fill="none" height="24" viewBox="0 0 24 24" width="24" xmlns="http://www.w3.org/2000/svg"><path clip-rule="evenodd" d="m18 8c-2.206 0-4 1.794-4 4 0 .731.212 1.409.557 2h-5.11397c.345-.591.55697-1.269.55697-2 0-2.206-1.79397-4-3.99997-4s-4 1.794-4 4 1.794 4 4 4h11.99997c2.206 0 4-1.794 4-4s-1.794-4-4-4" fill="#6b7280" fill-rule="evenodd"/></svg>

<svg width="24" height="24" viewBox="0 0 24 24" fill="none" xmlns="http://www.w3.org/2000/svg">
<g id="Icon/Fill/recording">
<path id="Mask" fill-rule="evenodd" clip-rule="evenodd" d="M18 8C15.794 8 14 9.794 14 12C14 12.731 14.212 13.409 14.557 14H9.443C9.788 13.409 10 12.731 10 12C10 9.794 8.206 8 6 8C3.794 8 2 9.794 2 12C2 14.206 3.794 16 6 16H18C20.206 16 22 14.206 22 12C22 9.794 20.206 8 18 8Z" fill="#000000"/>
</g>
</svg>
